X:8
T:Farewell Blues
C:Traditional
N:
L:1/8
Q:1/4=192
M:4/4
K:C
z2 G2 A2 c2 |: Ge eG ee Ge | fG eG ^d^F =d=F | cE cE ec GE | Cc EC cE CA | Ge eG ee Ge | 
fG eG ^d^F =d=F | cE cE ec GE | Cc EC cE CA | Ae ^cA ec AA | ^CA EC AE CA | DA ^FD AF DA | 
^DA GD AG DA | Ge eG ee Ge | f2 [e2G2] [^d2^F2] [=d2=F2] | cE cE ec GE | Cc EC cE CA :|: _Be cB ec Ac | 
Gc Ac _Bc Ac | Ge cG ec Ge | cG ec Gc Ac | _Be cB ec Ac | Gc Ac _Bc Ac | Ge cG ec GF | 
Ee cE ec Ee | ^ce ac ea ce | g^c gc eg ce | de ^fd ef de | ^de gd eg de | ee ge ea ee | 
ge ge ^f^d =f=d | ee ce ec eA | Ge cG [e4c4E4C4] :| 


